flaticon/sewing/zipper.svg

<svg xmlns="http://www.w3.org/2000/svg" width="32" height="32" viewBox="0 0 24 24">
    <path d="M 20.789062 0.824219 C 20.070312 0.824219 19.378906 0.945312 18.734375 1.164062 L 18.433594 0.265625 C 18.351562 0.0664062 18.113281 -0.0546875 17.914062 0.0234375 C 17.714844 0.105469 17.59375 0.34375 17.675781 0.542969 L 17.984375 1.476562 C 17.648438 1.644531 17.328125 1.835938 17.027344 2.058594 L 16.316406 1.34375 C 16.15625 1.183594 15.914062 1.183594 15.757812 1.34375 C 15.597656 1.503906 15.597656 1.742188 15.757812 1.902344 L 16.417969 2.566406 C 16.113281 2.847656 15.839844 3.164062 15.597656 3.5 L 14.636719 2.863281 C 14.4375 2.742188 14.199219 2.78125 14.078125 2.980469 C 13.957031 3.183594 13.996094 3.421875 14.199219 3.542969 L 15.167969 4.1875 C 15 4.492188 14.859375 4.8125 14.742188 5.144531 L 13.796875 4.820312 C 13.597656 4.738281 13.359375 4.859375 13.277344 5.058594 C 13.199219 5.257812 13.320312 5.5 13.519531 5.578125 L 14.527344 5.925781 C 14.460938 6.257812 14.417969 6.59375 14.402344 6.941406 C 13.472656 6.582031 12.582031 6.449219 12.199219 6.417969 C 12.121094 6.417969 12.078125 6.417969 12 6.417969 C 11.863281 6.417969 11.738281 6.4375 11.617188 6.476562 C 11.175781 6.53125 10.402344 6.671875 9.597656 6.980469 C 9.585938 6.628906 9.542969 6.285156 9.476562 5.953125 L 10.5625 5.578125 C 10.761719 5.5 10.882812 5.257812 10.800781 5.058594 C 10.722656 4.859375 10.480469 4.738281 10.28125 4.820312 L 9.265625 5.171875 C 9.152344 4.847656 9.019531 4.535156 8.859375 4.238281 L 9.84375 3.582031 C 10.042969 3.460938 10.082031 3.222656 9.960938 3.023438 C 9.84375 2.820312 9.601562 2.78125 9.402344 2.902344 L 8.433594 3.546875 C 8.191406 3.199219 7.910156 2.875 7.601562 2.585938 L 8.285156 1.902344 C 8.445312 1.742188 8.445312 1.503906 8.285156 1.34375 C 8.125 1.183594 7.882812 1.183594 7.722656 1.34375 L 6.996094 2.074219 C 6.710938 1.863281 6.410156 1.679688 6.09375 1.515625 L 6.40625 0.585938 C 6.484375 0.34375 6.367188 0.144531 6.164062 0.0664062 C 5.925781 -0.015625 5.726562 0.105469 5.648438 0.304688 L 5.351562 1.195312 C 4.679688 0.957031 3.960938 0.824219 3.210938 0.824219 C 2.96875 0.824219 2.808594 0.984375 2.808594 1.222656 C 2.808594 1.464844 2.96875 1.625 3.210938 1.625 C 6.285156 1.625 8.804688 4.140625 8.804688 7.21875 C 8.804688 7.257812 8.808594 7.296875 8.816406 7.332031 C 8.054688 7.738281 7.519531 8.441406 7.285156 9.296875 C 7.046875 10.175781 7.164062 11.132812 7.644531 11.933594 L 9.242188 14.609375 L 9.25 14.617188 C 9.273438 15.359375 9.308594 17.878906 8.761719 19.003906 C 8.523438 19.523438 8.445312 20.003906 8.484375 20.484375 C 8.761719 22.722656 10.082031 24 12.039062 24 C 13.996094 24 15.316406 22.722656 15.597656 20.445312 C 15.636719 19.964844 15.554688 19.484375 15.316406 18.964844 C 14.773438 17.769531 14.820312 15.003906 14.835938 14.460938 L 16.355469 11.890625 C 16.835938 11.09375 16.953125 10.132812 16.714844 9.253906 C 16.484375 8.402344 15.949219 7.703125 15.191406 7.296875 C 15.195312 7.269531 15.195312 7.246094 15.195312 7.21875 C 15.195312 4.140625 17.714844 1.625 20.789062 1.625 C 21.03125 1.625 21.191406 1.464844 21.191406 1.222656 C 21.191406 0.984375 21.03125 0.824219 20.789062 0.824219 Z M 11.601562 12.8125 L 11.601562 7.65625 C 11.601562 7.457031 11.761719 7.296875 11.921875 7.257812 C 12 7.257812 12.039062 7.257812 12.039062 7.257812 L 12.039062 7.21875 C 12.121094 7.226562 12.195312 7.253906 12.253906 7.296875 C 12.328125 7.355469 12.378906 7.441406 12.394531 7.542969 C 12.394531 7.546875 12.394531 7.546875 12.394531 7.550781 C 12.394531 7.558594 12.398438 7.570312 12.398438 7.578125 C 12.398438 7.589844 12.398438 7.605469 12.398438 7.617188 L 12.398438 12.8125 C 12.398438 13.050781 12.238281 13.210938 12 13.210938 C 11.761719 13.210938 11.601562 13.050781 11.601562 12.8125 Z M 8.324219 11.492188 C 7.964844 10.894531 7.882812 10.175781 8.003906 9.496094 C 8.164062 8.816406 8.605469 8.296875 9.203125 7.976562 C 9.722656 7.695312 10.28125 7.539062 10.761719 7.417969 C 10.761719 7.496094 10.761719 7.539062 10.761719 7.617188 L 10.761719 10.734375 C 10.363281 10.972656 10.042969 11.292969 9.800781 11.734375 C 9.601562 12.132812 9.402344 12.613281 9.324219 13.171875 Z M 14.757812 20.324219 C 14.597656 21.640625 13.996094 23.160156 12 23.160156 C 10.003906 23.160156 9.402344 21.601562 9.242188 20.324219 C 9.203125 20.042969 9.28125 19.683594 9.441406 19.324219 C 10.132812 17.867188 10.011719 14.75 10.003906 14.398438 C 10.011719 13.539062 10.207031 12.761719 10.523438 12.171875 C 10.589844 12.046875 10.671875 11.933594 10.761719 11.835938 L 10.761719 12.8125 C 10.761719 13.492188 11.28125 14.011719 11.960938 14.011719 C 11.964844 14.011719 11.972656 14.011719 11.980469 14.011719 C 11.988281 14.011719 11.992188 14.011719 12 14.011719 C 12.679688 14.011719 13.199219 13.492188 13.199219 12.8125 L 13.199219 11.695312 C 13.304688 11.808594 13.40625 11.949219 13.476562 12.09375 C 13.839844 12.691406 13.996094 13.492188 13.996094 14.371094 C 13.996094 14.488281 13.839844 17.847656 14.558594 19.324219 C 14.71875 19.683594 14.796875 20.003906 14.757812 20.324219 Z M 15.957031 9.535156 C 16.15625 10.175781 16.035156 10.933594 15.675781 11.53125 L 14.726562 13.113281 C 14.628906 12.585938 14.46875 12.105469 14.238281 11.691406 C 14 11.25 13.644531 10.894531 13.199219 10.675781 L 13.199219 7.65625 C 13.199219 7.578125 13.199219 7.539062 13.199219 7.457031 C 13.679688 7.578125 14.238281 7.738281 14.757812 8.015625 C 15.355469 8.335938 15.757812 8.894531 15.957031 9.535156 Z M 15.957031 9.535156"/>
    <path d="M 12.597656 18.84375 L 11.441406 18.84375 C 10.882812 18.84375 10.441406 19.285156 10.441406 19.84375 L 10.441406 21.003906 C 10.441406 21.5625 10.882812 22.003906 11.441406 22.003906 L 12.597656 22.003906 C 13.160156 22.003906 13.597656 21.5625 13.597656 21.003906 L 13.597656 19.84375 C 13.597656 19.285156 13.160156 18.84375 12.597656 18.84375 Z M 12.757812 20.964844 C 12.757812 21.082031 12.679688 21.164062 12.558594 21.164062 L 11.402344 21.164062 C 11.28125 21.164062 11.199219 21.082031 11.199219 20.964844 L 11.199219 19.804688 C 11.199219 19.683594 11.28125 19.605469 11.402344 19.605469 L 12.558594 19.605469 C 12.679688 19.605469 12.757812 19.683594 12.757812 19.804688 Z M 12.757812 20.964844"/>
</svg>

<svg xmlns="http://www.w3.org/2000/svg" width="32" height="32" viewBox="0 0 24 24">
    <path d="M20.79.824c-.72 0-1.411.121-2.056.34l-.3-.898c-.082-.2-.32-.32-.52-.243-.2.082-.32.32-.238.52l.308.934c-.336.168-.656.359-.957.582l-.71-.715a.385.385 0 0 0-.56 0 .385.385 0 0 0 0 .558l.661.664a6.215 6.215 0 0 0-.82.934l-.961-.637c-.2-.12-.438-.082-.559.117-.121.204-.082.442.121.563l.969.644a6.37 6.37 0 0 0-.426.958l-.945-.325c-.2-.082-.438.04-.52.239-.078.199.043.441.243.52l1.007.347c-.066.332-.109.668-.125 1.015a8.544 8.544 0 0 0-2.203-.523H12c-.137 0-.262.02-.383.059a8.945 8.945 0 0 0-2.02.503 6.312 6.312 0 0 0-.12-1.027l1.085-.375c.2-.078.32-.32.239-.52-.078-.199-.32-.32-.52-.238l-1.015.352a6.422 6.422 0 0 0-.407-.934l.985-.656c.199-.121.238-.36.117-.559-.117-.203-.36-.242-.559-.12l-.968.644a6.098 6.098 0 0 0-.832-.961l.683-.684a.385.385 0 0 0 0-.558.39.39 0 0 0-.562 0l-.727.73a6.678 6.678 0 0 0-.902-.558l.312-.93a.398.398 0 0 0-.242-.52.394.394 0 0 0-.516.239l-.296.89A6.386 6.386 0 0 0 3.21.825c-.242 0-.402.16-.402.398 0 .242.16.402.402.402 3.074 0 5.594 2.516 5.594 5.594 0 .039.004.078.011.113-.761.406-1.296 1.11-1.53 1.965a3.402 3.402 0 0 0 .359 2.637l1.597 2.675.008.008c.023.742.059 3.262-.488 4.387-.239.52-.317 1-.278 1.48C8.762 22.723 10.082 24 12.04 24s3.277-1.277 3.559-3.555c.039-.48-.043-.96-.282-1.48-.543-1.195-.496-3.961-.48-4.504l1.52-2.57a3.4 3.4 0 0 0 .359-2.637c-.23-.852-.766-1.55-1.524-1.957.004-.027.004-.05.004-.078 0-3.078 2.52-5.594 5.594-5.594.242 0 .402-.16.402-.402 0-.239-.16-.399-.402-.399zm-9.188 11.989V7.655c0-.199.16-.36.32-.398h.117v-.04a.432.432 0 0 1 .215.079.384.384 0 0 1 .14.246v.008c0 .008.004.02.004.027v5.234c0 .239-.16.399-.398.399-.238 0-.398-.16-.398-.399zm-3.278-1.32c-.36-.598-.441-1.317-.32-1.997.16-.68.601-1.2 1.2-1.52.519-.28 1.077-.437 1.558-.558V10.734a2.577 2.577 0 0 0-.961 1c-.2.399-.399.88-.477 1.438zm6.434 8.831c-.16 1.317-.762 2.836-2.758 2.836s-2.598-1.558-2.758-2.836c-.039-.281.04-.64.2-1 .69-1.457.57-4.574.562-4.926.008-.859.203-1.636.52-2.226.066-.125.148-.238.238-.336v.976c0 .68.52 1.2 1.199 1.2H12c.68 0 1.2-.52 1.2-1.2v-1.117c.105.114.206.254.277.399.363.597.52 1.398.52 2.277 0 .117-.157 3.477.562 4.953.16.36.238.68.199 1zm1.199-10.789c.2.64.078 1.399-.281 1.996l-.95 1.582a4.665 4.665 0 0 0-.488-1.422 2.372 2.372 0 0 0-1.039-1.015v-3.02-.199c.48.121 1.04.281 1.559.559.597.32 1 .879 1.199 1.52zm0 0"/>
    <path d="M12.598 18.844H11.44c-.558 0-1 .441-1 1v1.16c0 .558.442 1 1 1h1.157a.99.99 0 0 0 1-1v-1.16a.99.99 0 0 0-1-1zm.16 2.12c0 .118-.078.2-.2.2h-1.156c-.12 0-.203-.082-.203-.2v-1.16c0-.12.082-.199.203-.199h1.157c.12 0 .199.079.199.2zm0 0"/>
</svg>
